!!!!SEGMENT: pl-wnifc--6439-n--008_anonim--mazur-no-8.krn
!!!cenid: 18xx:3951
!!!COM: Anonim
!!!COM-rismID: pe30004985
!!!CDT:
!!!CNT:
!!!OTL: [Mazur] No. 8
!!!PDT: 1827
!!!AGN:
!!!SMS-siglum: PL-Wnifc
!!!SMS-shelfmark: 6439/n
!!!SMS-shelfwork: 008 W
!!!SMS-variant:
!!!SMS-altvar:
!!!NIFC-rismSourceID: 1001011210
!!!NIFC-rismChildID: 1001011238
!!!NIFC-islandoraID: nifc:212734
!!!URL-pdf-islandora: https://repozytorium.nifc.pl/islandora/object/nifc:212734/datastream/PDF/view
!!!URL-scan: https://polish.musicsources.pl/pl/lokalizacje/galeria/druki-muzyczne/16857 @EN{Scan on Polish Music Sources Website} @PL{Skany w portalu Dziedzictwo Muzyki Polskiej w otwartym dostępie}
!!!ONB-nifc: str. 6 w połowie 3.linii (skan 0004)
!!!AIN: 2 piano
!!!key: C
**kern	**kern
*part2	*part1
*staff2	*staff1
*I"Pianoforte	*I"Pianoforte
*I'Pf	*I'Pf
*Ipiano	*Ipiano
*ICklav	*ICklav
*clefF4	*clefG2
*k[]	*k[]
*C:	*C:
*M3/8	*M3/8
=1	=1
*	*Xtuplet
!	!LO:TX:a:Bi:t=No 8.
8C\L 8c	24e/LL
.	24g/
.	24cc/JJ
8G\ 8c 8e	16ee\LL
.	16cc\
8G\J 8c 8e	16aa\
.	16gg\JJ
=2	=2
8C\L 8c	16ff#X\LL
.	16gg\
8G\ 8c 8e	16ffn\
.	16ee\
8G\J 8c 8e	16dd\
.	16cc\JJ
=3	=3
*	*tuplet
8GG/ 8G	(16dd\LL
.	16cc\JJ
8G\L 8B 8d 8f	8b\L)
8G\J 8B 8d 8f	16gg\L
.	16ff\JJ
=4	=4
!	!LO:TUP:a
8C\L 8c	(24ff\LL
.	24ee\
.	24dd\JJ)
8G\ 8c 8e	8ee\L
.	8qb/
8G\J 8c 8e	16cc\L
.	16a\JJ
!LO:LB:g=original	!LO:LB:g=original
=5	=5
8C\L 8c	16g\LL
.	16cc\
8G\ 8c 8e	16ee\
.	16cc\
8G\J 8c 8e	16gg\
.	16ff\JJ
=6	=6
8C\L 8c	16ee\LL
.	16eee\
8G\ 8c 8e	16bb\
.	16ccc\
8G\J 8c 8e	16gg\
.	16ee\JJ
=7	=7
8FF/ 8F	16dd\LL
.	16ff\
8F\L 8A 8d	16aa\
.	16gg\
8F\J 8A 8d 8f	16b\
.	16dd\JJ
=8	=8
8C\ 8c	16ff\LL
.	16ee\JJ
4G\ 4c 4e	4cc\
=9:|!|:	=9:|!|:
8GG/ 8G	16dd\LL
.	16bb\
8G\L 8B 8d	16ff#X\
.	16gg\
8G\J 8B 8d	16dd\
.	16b\JJ
=10	=10
8DD/ 8D	16.a\LL
.	32ee\JJk
8D\L 8A 8c	8.dd/L
8D\J 8A 8c	.
.	16f#X/Jk
=11	=11
!	!LO:TUP:b
8GG/ 8G	(24g/LL
.	24b/
.	24dd/JJ)
8G\L 8B 8d	16gg\LL
.	16bb\
8G\J 8B 8d	16ddd\
.	16gg\JJ
=12	=12
8DD/ 8D	16.ff#X\LL
.	32ccc\JJk
8D\L 8A 8c	8.aa\L
8D\J 8A 8c	.
.	16ff#\Jk
=13	=13
8GG/ 8G	16.gg\LL
.	32bb\K
8G\L 8B 8d	16aa\
.	16gg\
8G\J 8B 8d	16ff#X\
.	16ee\JJ
=14	=14
8GG/ 8G	(8dd\L
.	32qqee/LLL
.	32qqdd/
.	32qqcc#X/JJJ
8G\L 8B 8d	16ee\L
.	16dd\
8G\J 8B 8d	16ccn\
.	16b\JJ)
!LO:LB:g=original	!LO:LB:g=original
=15	=15
8DD/ 8D	16a/LL
.	16g/
8D\L 8A 8c	16f#X/
.	16ee/
8D\J 8A 8c	16dd/
.	16f#/JJ
=16	=16
8G\ 8c	(>16a/LL
.	16g/JJ
4G\ 4B 4d	4g/
=17:|!|:	=17:|!|:
8GG\ 8G	(16g/LL)
.	16a/
!	!LO:TX:a:t=2.
4G\ 4d 4f	16b/
.	16cc/
.	16dd/
.	16ee/JJ
=18!|:	=18!|:
8GG/ 8G	16ff\LL)
.	16gg\
8B\L 8d 8f	16gg#X\
.	16aa\
8B\J 8d 8f	16ee\
.	16ff\JJ
=19	=19
8GG/ 8G	16.cc#X\LL
.	32dd\JJk
8B\L 8d 8f	8.ff\L
8B\J 8d 8f	.
.	32dd\LL
.	32cc#\JJJ
=20	=20
8GG/ 8G	16b\LL
.	16dd\
8B\L 8d 8f	16gg\
.	16bb\
8B\J 8d 8f	16ddd\
.	16bb\JJ
=21	=21
*^	*
8rc	4c\	16.ccc\LL
.	.	32ddd\JJk
8c/L 8e 8g	.	8.eee\L
8c/J 8e 8g	8rEE	.
.	.	16gg\Jk
=22	=22	=22
8rc	4F\	16f/LL
.	.	16a/
8A/L 8c	.	16cc/
.	.	16ff/JJ
8A/J 8c	8rEE	16aa\LL
.	.	16ccc\JJ
=23	=23	=23
8rc	4F\	16bb\LL
.	.	16aa\
8A/L 8c	.	16gg#X\
.	.	16aa\
8A/J 8d	8F\	16ff\
.	.	16dd\JJ
*v	*v	*
=24	=24
8G\L 8B 8d 8f	16cc\LL
.	16b\
8G\ 8B 8d 8f	16gg\
.	16g\
8G\J 8B 8d 8f	16b\
.	16dd\JJ
=25	=25
8c\ 8e	16ff\LL
.	16ee\JJ
4C\ 4c	4cc\
!LO:LB:g=original	!LO:LB:g=original
=26:|!	=26:|!
*^	*
*	*	*Xtuplet
8rc	4F\	(24cc\LL
.	.	24dd\
.	.	24ee\JJ)
8A/L 8c	.	16ff\LL
.	.	16gg\
8A/J 8c	8rEE	16aa\
.	.	16bb-X\JJ
=27	=27	=27
8rc	4F\	16bbn\LL
.	.	16ccc\JJ
8A/L 8c	.	8.ddd\L
8A/J 8c	8rEE	.
.	.	16ccc\Jk
=28	=28	=28
.	.	8qccc/
8rc	4B\	16bb-X\LL
.	.	16aa\
8d/L 8g	.	16bb-\
.	.	16dd\
8d/J 8g	8rEE	16gg\
.	.	16ff\JJ
=29	=29	=29
*	*	*tuplet
!	!	!LO:TUP:a
8rc	4c\	(24ee\LL
.	.	24gg\
.	.	24ee\JJ)
8e/L 8g	.	16cc\LL
.	.	16bb-X\
8e/J 8g	8rEE	16aa\
.	.	16gg\JJ
=30	=30	=30
8rc	4A\	16ff\LL
.	.	16cc\
8c/L 8f	.	16ff\
.	.	16aa\
8c/J 8f	8rEE	16ddd\
.	.	16ccc\JJ
=31	=31	=31
8rc	4B\	16dd\LL
.	.	16b\
8d/L 8g	.	16dd\
.	.	16gg\
8d/J 8g	8rEE	16bb-X\
.	.	16aa\JJ
=32	=32	=32
8rc	4c\	16gg\LL
.	.	16ff\
8e/L 8g	.	16ee\
.	.	16bb-X\
8e/J 8g 8b	8c\	16gg\
.	.	16ee\JJ
*v	*v	*
=33	=33
8f\ 8a	16gg\LL
.	16ff\JJ
4f\	4ff\
=:|!	=:|!
*-	*-
!!!RDF**kern: > = above
!!!RDF**kern: < = below
!!!system-decoration: [(s1,s2)]
!!!ENC: Solarz Mateusz
!!!END: 2022-07-28
!!!ENC: Julita Ruszuk
!!!END: 2022-08-25
!!!YEC: Copyright 2022 Narodowy Instytut Fryderyka Chopina (https://polishscores.org)
!!!YEM: License CC-BY-4.0 (https://creativecommons.org/licenses/by/4.0)
